X: 332
T:Mon mary m'a diffam\'ee
N: Derived from Jos2727-Mon_mary_ma_diffamee.krn
C: Josquin des Prez
%%abc-version 2.0
%%abcx-abcm2ps-target-version 5.9.1 (29 Sep 2008)
%%abc-creator hum2abc beta
%%abcx-conversion-date 2019/02/12 16:15:54
%%abc-edited-by Jesse Rodin
%%abc-edited-by Jesse Rodin; Victoria Chang 2011/05/30
%%abcx-initial-encoding-date 2011/05/30/
%%humdrum-veritas 823490644
%%humdrum-veritas-data 2324371431
%%linebreak <none>
%%barnumbers 0
L: 1/4
M: 2/1
Q: 1/2=120
V: 1 clef=treble
V: 2 clef=treble-8
V: 3 clef=treble-8
K: C
[V:1] z8 | 
[V:2] z8 | 
[V:3] G2G2G2G2 | 
[V:1] z8 | 
[V:2] z8 | 
[V:3] G4B4 | 
[V:1] G2G2G2G2 | 
[V:2] z8 | 
[V:3] c3defg2- | 
[V:1] G4B4 | 
[V:2] z8 | 
[V:3] g2fed4 | 
[V:1] c6B2 | 
[V:2] c2c2c2c2 | 
[V:3] c3BA2G2 | 
[V:1] A4G4 | 
[V:2] c4e4 | 
[V:3] F4c4 | 
[V:1] z2c2d2e2- | 
[V:2] f6e2 | 
[V:3] F2A2B2c2- | 
[V:1] edc4B2 | 
[V:2] c4d4 | 
[V:3] cBA2G4 | 
[V:1] c4G2A2 | 
[V:2] c6BA | 
[V:3] g4z4 | 
[V:1] B3cd2e2- | 
[V:2] G8 | 
[V:3] g2g2g2g2 | 
[V:1] edd4^c2 | 
[V:2] z8 | 
[V:3] f4e4 | 
[V:1] d3cA2B2- | 
[V:2] d2d2d2d2 | 
[V:3] d4z2G2 | 
[V:1] BAA4G2 | 
[V:2] c4B4 | 
[V:3] A2F2G4 | 
[V:1] A4z2A2 | 
[V:2] A8 | 
[V:3] DEFGABcd | 
[V:1] GFEDE4 | 
[V:2] z8 | 
[V:3] e2d4^c2 | 
[V:1] D3EFGA2- | 
[V:2] z4z2d2 | 
[V:3] d4D3E | 
[V:1] AGG4^F2 | 
[V:2] cBAGA4 | 
[V:3] F2G2D4 | 
[V:1] G8 :|]  
[V:2] G8 :|]  
[V:3] d8 :|]  
[V:1] G3AB2c2 | 
[V:2] z8 | 
[V:3] e3fg2a2- | 
[V:1] G4A4 | 
[V:2] z8 | 
[V:3] agg4^f2 | 
[V:1] G4z2d2 | 
[V:2] c3de2f2 | 
[V:3] g2c4_B2 | 
[V:1] e2c4B2 | 
[V:2] c4d4 | 
[V:3] A4G4 | 
[V:1] c3defe2- | 
[V:2] c4z4 | 
[V:3] g3fedc2- | 
[V:1] e2dcB4 | 
[V:2] g2g2g2g2 | 
[V:3] c2BAG3F | 
[V:1] z8 | 
[V:2] f4e4 | 
[V:3] D2d4^c2 | 
[V:1] d2d2d2d2 | 
[V:2] d8 | 
[V:3] d2G4_B2 | 
[V:1] c4B4 | 
[V:2] z8 | 
[V:3] A2F2G4 | 
[V:1] A8 | 
[V:2] d2d2d2c2 | 
[V:3] D3EFGA2- | 
[V:1] z8 | 
[V:2] B4A4 | 
[V:3] AGG4^F2 | 
[V:1] d2d2d2c2 | 
[V:2] G4z4 | 
[V:3] G2defga2- | 
[V:1] B4A4 | 
[V:2] z8 | 
[V:3] agg4^f2 | 
[V:1] GABcded2- | 
[V:2] g2g2g2f2 | 
[V:3] g2GABcdB | 
[V:1] dcc4B2 | 
[V:2] e4d4 | 
[V:3] c4G4 | 
[V:1] c8 |]  
[V:2] c8 |]  
[V:3] c8 |]  



